X:25
T:Martin Henry's Jig
Z:robin.beech@mcgill.ca
S:Martin Henry
M:9/8
L:1/8
K:D
F2A ABA ABA | F2A ABA Bcd | F2A ABA ABA | B2B e2d cBA ::
f2a f2a fed | f2a f2a gfe | f2a f2a fed | g2f e2d cBA ::
f2z a2z d2f | g2f e2d cBA | f2a e2f d2B | A2B A2G FED :|
